X:14782
T:Sal a baillar
C:Tradicional
S:Msica Tradicional Asturiana, (C) Tello & Tito. Asturies, 2001.
S:http://pagina.de/MusTradAst <telloytito@asturies.org>
A:Asturies
Z:Asturias, canciones
M:2/4
L:1/8
Q:1/4=140
K:G
|d2 dc|B2 cc|d2 d2|d2 dc|B2 cc|d2 d2|
|: Bc AB|G2 AG|F4|Bc AB|G2 AF|G4 :||
